X:1
T:Feurige Liebe
T:Josef Rheinberger
T:Robert Reinick
T:Feurige Liebe
T:WoO 042
T:CPDL - Creative Commons Attribution Non Commercial 3.0
T:CPDL - Creative Commons Attribution Non Commercial 3.0
T:CPDL - Creative Commons Attribution Non Commercial 3.0
T:CPDL - Creative Commons Attribution Non Commercial 3.0
T:CPDL - Creative Commons Attribution Non Commercial 3.0
T:CPDL - Creative Commons Attribution Non Commercial 3.0
T:CPDL - Creative Commons Attribution Non Commercial 3.0
T:CPDL - Creative Commons Attribution Non Commercial 3.0
C:Josef Rheinberger
Z:Robert Reinick
Z:CPDL - Creative Commons Attribution Non Commercial 3.0
%%score [ 1 ( 2 3 ) 4 ( 5 6 ) ]
L:1/8
Q:1/4=66
M:2/4
K:Ab
V:1 treble-8 nm="Tenor 1"
V:2 treble-8 nm="Tenor 2"
V:3 treble-8 
V:4 bass nm="Bass 1"
V:5 bass nm="Bass 2"
V:6 bass 
V:1
"^Nicht zu geschwind" z | z4 | z4 |!p!!<(! e2 c2!<)! | f/B/B/c/ d2 |!f! g3 f/e/ | a2 A2 | %7
w: |||1.~Feur'- ge|Lie- be heißt das Kraut;|feur'- ge _|Lie- be!|
w: |||||||
!p! .c!<(!.c .c.c | c!<)!f!>(! =e/=d/c!>)! |!f! g>=e e>c | c>=e =d2 | %11
w: Kommt des Nach- bars|schmu- cke Toch- * ter|hat uns freund- lich|an- ge- schaut;|
w: ||||
!p![Q:1/4=60]"^smorz."!<(! _d/c/ c/d/ d/c/ c/d/!<)! | d/f/ f/e/ !^!e!^!d |!<(! cA dA!<)! | %14
w: steckt * das * Kräut- * lein _|mir _ in's _ Knopf- loch,|spricht: "Wie blass ist|
w: |||
!>(! cA d2!>)! |!f![Q:1/4=66] a3 =g/f/ | e>f e2 | f2- (3fed |"^dim." c>d c2 | %19
w: dein Ge- sicht!|Feur'- ge _|Lie- * be,|trag' _ _ am|Her- * zen,|
w: |||||
!>(! (e2 d)!>)! z/!p! B/ | d2 c z |[Q:1/4=60]"^rit."!<(! BF!<)!!>(! =G>A!>)! | !fermata!A3 |: %23
w: rot _ und|in- nig,|frisch _ und _|leicht!"|
w: ||||
[Q:1/4=66] z | z4 | z4 |!p!!<(! e2 c2!<)! | f/B/B/c/ d2 |!f! g3 f/e/ | a>A A2 |!p!!<(! .c.c .c.c | %31
w: |||2.~bis es|welk und un- schein- bar,|bis es _|un- schein- bar,|hab mir's aus dem|
w: |||3.~dass das|Kraut so wun- der- lich,|dass es so|wun- der- lich,|hätt' ich la- chend|
 c!<)!f!>(! =e/=d/c!>)! |!f! g>=e e>c | c>=e =d2 | %34
w: Sinn ge- schla- * gen,|doch da kam's gar|wun- der- bar:|
w: sie ge- be- * ten:|"Schatz, be- halt es|nur für dich."|
!p![Q:1/4=60]"^smorz."!<(! _d/c/ c/d/ d/c/ c/d/!<)! | d/f/ f/e/ !^!e!^!d |!<(! cA dA!<)! | %37
w: Wur- * zel _ schlug _ es _|mir _ im _ Her- zen,|dehnt sich drin ge-|
w: A- * ber _ jetzt _ ich _|fühl', _ ich _ fühl' es,|aus- zu- rot- ten|
!>(! cA d2!>)! |!f![Q:1/4=66] a3 =g/f/ | e>f e2 | f2- (3fed |"^dim." c>d c2 | %42
w: wal- tig aus,|brennt wie *|Nes- * seln,|un- * * ter|Schmer- * zen|
w: geht's nicht mehr;|aus dem *|Knopf- * loch|lässt _ _ sich's|rei- * ßen,|
!>(! (e2 d) z/ B/!>)! |!p! d2 c2 |[Q:1/4=60]"^rit."!<(! BF!<)!!>(! =G>A!>)! | !fermata!A3 :| %46
w: treibt _ es|Blüt' um|Blüt' _ her- *|aus.|
w: aus _ dem|Her- zen|nim- * mer- *|mehr!|
V:2
 z | z4 | z4 |!p!!<(! c2 A2!<)! | G/G/G/G/ G2 | z2!f! d>d | dc/B/ A2 |!p! A/G/!<(! F/G/ A/G/ F/G/ | %8
w: |||||feur'- ge|Lie- * * be!||
w: ||||||||
 A/G/!<)! A/B/!>(! cG!>)! |!f! =e>c c>G | G>c =B2 |!p!!<(! _B/=A/ A/B/ B/A/ A/B/!<)! | %12
w: ||||
w: ||||
 B/d/ d/c/ !^!c!^!B |!<(! AA AA!<)! |!>(! AA A2!>)! |!f! f3 e/d/ | d2 c2 | d2- (3dcB | %18
w: ||||||
w: ||||||
"^dim." B2 A2 |!>(! A3!>)! z/!p! A/ | G2 _G z |!<(! F2!<)!!>(! E2!>)! | !fermata!E3 |: z | z4 | %25
w: |||||||
w: |||||||
 z4 |!p!!<(! c2 A2!<)! | G/G/G/G/ G2 | z2!f! d>d | (dc/)B/ A2 |!p!!<(! A/G/ F/G/ A/G/ F/G/ | %31
w: |||bis es|un- * schein- bar,||
w: |||dass so|wun- * der- lich,||
 A/G/!<)! A/B/!>(! cG!>)! |!f! =e>c c>G | G>c =B2 |!p!!<(! _B/=A/ A/B/ B/A/ A/B/!<)! | %35
w: ||||
w: ||||
 B/d/ d/c/ !^!c!^!B |!<(! AA AA!<)! |!>(! AA A2!>)! |!f! f3 e/d/ | d2 c2 | d2- (3dcB | %41
w: ||||||
w: ||||||
"^dim." B2 A2 |!>(! A3 z/ A/!>)! |!p! G2 _G2 |!<(! F2!<)!!>(! E2!>)! | !fermata!E3 :| %46
w: |||||
w: |||||
V:3
 x | x4 | x4 | x4 | x4 | x4 | x4 | x4 | x4 | x4 | x4 | x4 | x4 | x4 | x4 | x4 | x4 | x4 | x4 | x4 | %20
w: ||||||||||||||||||||
w: ||||||||||||||||||||
 x4 | x4 | x3 |: x | x4 | x4 | x4 | x4 | x2 dd/d/ | x4 | x4 | x4 | x4 | x4 | x4 | x4 | x4 | x4 | %38
w: ||||||||||||||||||
w: ||||||||* es *||||||||||
 x4 | x4 | x4 | x4 | x4 | x4 | x4 | x3 :| %46
w: ||||||||
w: ||||||||
V:4
!mf! C/C/ | G,A, E,F, | C,E, A,,2 |!p!!<(! E,2 E,2!<)! | E,/E,/E,/E,/ E,2 | z2!f! B, A,/G,/ | %6
w: 1.~Wächst ein|Kraut in un- serm|Gar- * ten,|feur'- ge|Lie- be heißt das Kraut;|feur'- ge _|
w: ||||||
 F,E,/D,/ C,2 |!p! .F,!<(!.C, .F,.C, | F,!<)!F,!>(! G,/F,/=E,!>)! |!f! C>G, G,>=E, | =E,>G, G,2 | %11
w: Lie- * * be!|Kommt des Nach- bars|schmu- cke Toch- * ter,|hat uns freund- lich|an- ge- schaut;|
w: |||||
!p!!<(! G,_E, G,E,!<)! | G,E, !^!G,!^!G, |!<(! _G,>E, F,>D,!<)! |!>(! _G,>E, F,2!>)! | %15
w: steckt das Kräut- lein|mir in's Knopf- loch,|spricht: "wie blass ist|dein Ge- sicht!|
w: ||||
 z2!f! A,>A, | B,2 C2 | z2 F,>F, |"^dim." G,2 A,2 |!>(! F,3!>)! z/!p! F,/ | E,2 E, z | %21
w: Feur'- ge|Lie- be,|trag' am|Her- zen,|rot und|in- nig,|
w: ||||||
!<(! =D,2!<)!!>(! _D,2!>)! | !fermata!C,3 |:!mf! C/C/ | G,A, E,F, | C,E, A,,2 | %26
w: frisch und|leicht!"|2.~Hab das|Kräut- lein auch ge-|tra- * gen|
w: ||3.~Hätt' ich's|frü- her nur ge-|ah- * net,|
!p!!<(! E,2 E,2!<)! | E,/E,/E,/E,/ E,2 | z2!f! B, A,/G,/ | (F,E,/)D,/ C,2 |!p!!<(! .F,.C, .F,.C, | %31
w: bis es|welk und un- schein- bar,|bis es _|un- * schein- bar,|hab mir's aus dem|
w: dass das|Kraut so wun- der- lich,|dass es so|wun- * der- lich,|hätt' ich la- chend|
 F,!<)!F,!>(! G,/F,/=E,!>)! |!f! C>G, G,>=E, | =E,>G, G,2 |!p!!<(! G,_E, G,E,!<)! | %35
w: Sinn ge- schla- * gen,|doch da kam's gar|wun- der- bar:|Wur- zel schlug es|
w: sie ge- be- * ten:|"Schatz, be- halt es|nur für dich."|A- ber jetzt, ich|
 G,E, !^!G,!^!G, |!<(! _G,>E, F,>D,!<)! |!>(! _G,>E, F,2!>)! | z2!f! A,>A, | B,2 C2 | z2 F,>F, | %41
w: mir im Her- zen,|dehnt sich drin ge-|wal- tig aus,|brennt wie|Nes- seln,|un- ter|
w: fühl', ich fühl' es,|aus- zu- rot- ten|geht's micht mehr;|aus dem|Knopf- loch|lässt sich's|
"^dim." G,2 A,2 |!>(! F,3 z/ F,/!>)! |!p! E,2 E,2 |!<(! =D,2!<)!!>(! _D,2!>)! | !fermata!C,3 :| %46
w: Schmer- zen|treibt es|Blüt' um|Blüt' her-|aus.|
w: rei- ßen,|aus dem|Her- zen|nim- mer-|mehr!|
V:5
!mf! C/C/ | G,A, E,F, | C,E, A,,2 |!p!!<(! A,,2 C,2!<)! | D,/D,/D,/C,/ B,,2 | z2!f! E,>E, | %6
w: |||||feur'- ge|
w: ||||||
 A,,2 A,,2 |!p! .F,!<(!.F,, .F,.F,, | F,!<)!D,!>(! C,C,!>)! | z!f! C,/=B,,/ C,/=D,/ =E,/F,/ | %10
w: Lie- be!|||hat uns freund- * lich _|
w: ||||
 G,G,, G,2 |!p!!<(! _E,E, E,E,!<)! | E,E, !^!E,!^!E, |!<(! A,,A,, A,,A,,!<)! |!>(! A,,A,, D,2!>)! | %15
w: an- ge- schaut;|steckt das Kräut- lein|mir in's Knopf- loch,|spricht: "Wie blass ist|dein Ge- sicht!|
w: |||||
 z2!f! D,>D, | =G,2 A,2 | z2 B,,>B,, |"^dim." =E,2 F,2 |!>(! (F,2 B,,)!>)! z/!p! D,/ | E,2 =A,, z | %21
w: ||||||
w: ||||||
!<(! B,,2!<)!!>(! E,,2!>)! | !fermata!A,,3 |:!mf! C/C/ | G,A, E,F, | C,E, A,,2 | %26
w: |||||
w: |||||
!p!!<(! A,,2 C,2!<)! | D,/D,/D,/C,/ B,,2 | z2!f! E,>E, | A,,>A,, A,,2 |!p!!<(! .F,.F,, .F,.F,, | %31
w: |||||
w: |||||
 F,!<)!D,!>(! C,C,!>)! | z!f! C,/=B,,/ C,/=D,/ =E,/F,/ | G,G,, G,2 |!p!!<(! _E,E, E,E,!<)! | %35
w: |doch da kam's _ gar _|wun- der- bar:||
w: |"Schatz, be- halt _ es _|nur für dich."||
 E,E, !^!E,!^!E, |!<(! A,,A,, A,,A,,!<)! |!>(! A,,A,, D,2!>)! | z2!f! D,>D, | G,2 A,2 | %40
w: |||||
w: |||||
 z2 B,,>B,, |"^dim." =E,2 F,2 |!>(! (F,2 B,,) z/ D,/!>)! |!p! E,2 =A,,2 | %44
w: ||||
w: ||||
!<(! B,,2!<)!!>(! E,,2!>)! | !fermata!A,,3 :| %46
w: ||
w: ||
V:6
 x | x4 | x4 | x4 | x4 | x4 | x4 | x4 | x4 | x4 | x4 | x4 | x4 | x4 | x4 | x4 | x4 | x4 | x4 | x4 | %20
 x4 | x4 | x3 |: x | x4 | x4 | x4 | x4 | x2 E,E,/E,/ | x4 | x4 | x4 | x4 | x4 | x4 | x4 | x4 | x4 | %38
 x4 | x4 | x4 | x4 | x4 | x4 | x4 | x3 :| %46

